img/about/6.svg

<svg width="37" height="36" viewBox="0 0 37 36" fill="none" xmlns="http://www.w3.org/2000/svg">
<g clip-path="url(#clip0)">
<path d="M17.8315 0C17.952 0 18.0724 0 18.1929 0C18.4821 0.192771 18.7953 0.385542 19.0363 0.60241C20.1206 1.63855 21.0604 2.79518 21.9038 4.0241C21.9761 4.12048 22.0484 4.24096 22.1206 4.33735C22.2652 4.24096 22.3616 4.16867 22.4821 4.09639C23.8074 3.22892 25.205 2.50602 26.6749 1.92771C27.3737 1.66265 27.9038 1.85542 28.1688 2.55422C28.6026 3.73494 29.0122 4.93976 29.3977 6.14458C29.5423 6.57831 29.6146 7.01205 29.711 7.44578C29.8074 7.42169 29.9038 7.42169 29.9761 7.39759C31.5664 7.08434 33.1809 6.96386 34.8194 6.96386C35.4218 6.96386 36.0002 7.3494 36.0002 8.19277C36.0243 10.0482 35.8556 11.8795 35.4459 13.6867C34.8435 16.4096 33.7592 18.9157 31.9038 21.0361C31.8556 21.0843 31.8315 21.1566 31.7833 21.2048C31.8556 21.253 31.9038 21.2771 31.952 21.3012C33.2773 22.0723 34.458 23.012 35.5664 24.0964C36.1206 24.6265 36.1206 25.3253 35.5664 25.8795C34.1929 27.2289 32.699 28.3614 30.9399 29.2048C28.723 30.241 26.458 30.6265 24.0484 29.9759C23.6146 29.8554 23.1809 29.7108 22.7471 29.5904C22.723 29.6386 22.723 29.6627 22.699 29.7108C21.8797 31.9759 20.5303 33.8795 18.8435 35.5904C18.3616 36.0964 17.5423 36.0723 17.0845 35.6145C15.4941 34 14.1929 32.2169 13.3737 30.0964C13.3014 29.9277 13.2532 29.759 13.1809 29.5663C13.0845 29.5904 13.0122 29.6145 12.9399 29.6627C10.6749 30.506 8.4098 30.5301 6.14474 29.7108C4.04835 28.9398 2.21703 27.7108 0.650761 26.1446C0.3857 25.8795 0.192929 25.5422 -0.0480347 25.2289C-0.0480347 25.0843 -0.0480347 24.9398 -0.0480347 24.7952C0.12064 24.5542 0.265218 24.2651 0.482086 24.0482C1.51823 22.988 2.69895 22.0964 3.97606 21.3494C4.04835 21.3012 4.12064 21.253 4.16883 21.2289C3.80739 20.7711 3.44594 20.3374 3.10859 19.8795C1.37365 17.3253 0.530279 14.4337 0.168833 11.3735C0.0965436 10.8434 0.0483509 10.3133 0.000158105 9.78313C0.000158105 9.15663 0.000158105 8.55422 0.000158105 7.92771C0.265218 7.22892 0.530279 7.01205 1.25317 7.03614C2.3857 7.06024 3.49413 7.13253 4.62666 7.22892C5.18088 7.27711 5.7351 7.39759 6.28932 7.46988C6.31341 7.37349 6.33751 7.27711 6.33751 7.20482C6.67486 5.59036 7.15679 4.0241 7.83148 2.50602C8.12064 1.92771 8.65076 1.68675 9.27727 1.95181C9.90377 2.21687 10.5544 2.45783 11.1568 2.79518C12.0965 3.27711 12.9881 3.80723 13.9279 4.33735C13.9761 4.28916 14.0243 4.19277 14.0965 4.09639C14.964 2.81928 15.952 1.61446 17.0604 0.554217C17.2773 0.337349 17.5664 0.192771 17.8315 0ZM18.0724 2.55422C17.9761 2.62651 17.952 2.62651 17.9279 2.6506C16.3375 4.36145 15.0122 6.26506 14.0724 8.43373C12.8435 11.3012 12.7231 14.1687 13.8315 17.1084C14.6267 19.2289 15.8556 21.1084 17.3255 22.8434C17.5423 23.1084 17.7592 23.3253 18.0002 23.5904C19.6146 21.8554 20.964 19.9759 21.8797 17.8313C22.9158 15.4458 23.2532 13.012 22.5785 10.4578C22.0724 8.57831 21.2532 6.84337 20.1206 5.25301C19.4941 4.31325 18.7712 3.44578 18.0724 2.55422ZM2.12064 9.13253C2.12064 9.25301 2.12064 9.3012 2.12064 9.3494C2.24112 11.7349 2.65076 14.0723 3.56642 16.2892C4.62666 18.8193 6.31341 20.747 8.77124 22.0241C10.4339 22.8916 12.217 23.4217 14.0484 23.7108C14.5062 23.7831 14.9399 23.8313 15.47 23.9036C15.3977 23.8072 15.3977 23.7831 15.3737 23.759C14.6749 22.7711 13.9279 21.8313 13.3255 20.8193C11.6387 18 10.699 15.012 11.0604 11.6627C11.0604 11.5904 11.0122 11.4699 10.9399 11.4458C10.2893 11.1084 9.66281 10.7711 8.98811 10.4819C7.39775 9.80723 5.711 9.44578 4.00016 9.25301C3.37365 9.20482 2.77124 9.18072 2.12064 9.13253ZM20.5785 23.8795C20.7471 23.8795 20.8676 23.8554 20.9881 23.8554C22.3857 23.6867 23.7351 23.3976 25.0604 22.9639C28.4821 21.8313 31.0122 19.7108 32.4339 16.3614C33.2291 14.506 33.6387 12.5783 33.8556 10.5783C33.9038 10.1205 33.9279 9.63855 33.952 9.15663C33.8315 9.15663 33.7351 9.15663 33.6628 9.15663C32.6749 9.25301 31.6869 9.3253 30.723 9.49398C28.7953 9.80723 26.9881 10.3855 25.2773 11.3735C25.0604 11.494 25.0122 11.6145 25.0363 11.8554C25.1809 13.1325 25.1086 14.3855 24.8435 15.6386C24.3134 18.1687 23.1809 20.4096 21.6869 22.506C21.3014 22.9398 20.9399 23.3976 20.5785 23.8795ZM15.3255 26.0241C14.7231 25.9277 14.1688 25.8795 13.6387 25.7831C10.9158 25.3494 8.3616 24.4819 6.09654 22.8434C5.97606 22.747 5.87968 22.747 5.7351 22.8193C5.15678 23.1807 4.53028 23.494 3.97606 23.8795C3.47004 24.2169 3.01221 24.6265 2.50618 25.012C2.60257 25.0843 2.65076 25.1325 2.69895 25.1566C3.54233 25.8795 4.43389 26.5301 5.42184 27.0602C6.57847 27.6867 7.80739 28.1205 9.13269 28.1928C10.9399 28.2892 12.5544 27.7108 14.0724 26.8193C14.5062 26.6024 14.8917 26.3133 15.3255 26.0241ZM20.723 26C20.8435 26.0964 20.9158 26.1446 20.9881 26.1928C21.7351 26.6265 22.4339 27.1084 23.205 27.4458C24.9881 28.2651 26.8194 28.4578 28.723 27.8554C30.2411 27.3735 31.5664 26.5542 32.8194 25.5904C33.0363 25.4217 33.2532 25.2289 33.4941 25.012C32.5062 24.1205 31.47 23.3976 30.3375 22.8193C30.1688 22.7229 30.0484 22.747 29.9038 22.8434C28.7712 23.6386 27.5664 24.2651 26.2652 24.747C24.4821 25.4458 22.6508 25.8072 20.723 26ZM18.0243 26.6265C17.1809 27.253 16.2893 27.8795 15.3977 28.506C15.2291 28.6265 15.1809 28.6988 15.2532 28.8916C15.7833 30.4819 16.6749 31.8795 17.7592 33.1566C17.8556 33.253 17.952 33.3735 18.0484 33.494C18.4098 33.0602 18.7471 32.6506 19.0604 32.2169C19.8074 31.1807 20.458 30.0723 20.8435 28.8434C20.8917 28.7229 20.8917 28.6506 20.7712 28.5542C19.8315 27.9277 18.9158 27.253 18.0243 26.6265ZM23.2532 6.09639C23.711 7.22892 24.1447 8.26506 24.5544 9.27711C25.5905 8.84337 26.6267 8.40964 27.6869 7.9759C27.4459 6.72289 27.1086 5.49398 26.6026 4.24096C25.4459 4.86747 24.3375 5.49398 23.2532 6.09639ZM11.4941 9.27711C11.9279 8.24096 12.3375 7.20482 12.7712 6.14458C11.7351 5.44578 10.6267 4.79518 9.42184 4.28916C8.96401 5.51807 8.60257 6.74699 8.3616 7.9759C9.44594 8.40964 10.4821 8.84337 11.4941 9.27711Z" fill="#051B10"/>
<path d="M18.0723 2.55424C18.7711 3.4458 19.494 4.31327 20.1446 5.22894C21.2771 6.8193 22.1205 8.53014 22.6024 10.4338C23.2771 12.988 22.9156 15.4217 21.9036 17.8073C20.9638 19.9518 19.6144 21.8313 18.0241 23.5663C17.8072 23.3253 17.5662 23.0844 17.3494 22.8193C15.8795 21.0844 14.6747 19.2289 13.8554 17.0844C12.747 14.1687 12.8675 11.2771 14.0964 8.40966C15.0361 6.24098 16.3614 4.36147 17.9518 2.62653C17.9759 2.62653 18 2.60243 18.0723 2.55424Z" fill="#166D44"/>
<path d="M2.12064 9.13251C2.77124 9.18071 3.37365 9.2289 4.00015 9.27709C5.711 9.46986 7.39774 9.83131 8.9881 10.506C9.6628 10.7952 10.2893 11.1325 10.9399 11.4699C11.0122 11.494 11.0604 11.6144 11.0604 11.6867C10.6989 15.012 11.6387 18.0241 13.3255 20.8434C13.9279 21.8795 14.6989 22.8193 15.3736 23.7831C15.3977 23.8072 15.4218 23.8313 15.47 23.9277C14.964 23.8554 14.5062 23.8072 14.0483 23.7349C12.1929 23.4458 10.4339 22.9156 8.77124 22.0482C6.3375 20.7711 4.62666 18.8434 3.56642 16.3132C2.62666 14.0964 2.21702 11.759 2.12064 9.37348C2.12064 9.30119 2.12064 9.253 2.12064 9.13251Z" fill="#166D44"/>
<path d="M20.5788 23.8795C20.9402 23.3735 21.3017 22.9397 21.639 22.4819C23.133 20.4096 24.2896 18.1446 24.7956 15.6144C25.0607 14.3614 25.133 13.1084 24.9884 11.8313C24.9643 11.5903 25.0125 11.4699 25.2294 11.3494C26.9161 10.3855 28.7474 9.78312 30.6751 9.46986C31.639 9.32529 32.6269 9.253 33.6149 9.13251C33.7113 9.13251 33.7836 9.13251 33.9041 9.13251C33.88 9.61444 33.8559 10.0964 33.8077 10.5542C33.6149 12.5542 33.1812 14.4819 32.386 16.3373C30.9643 19.6867 28.4342 21.8313 25.0125 22.9397C23.6872 23.3735 22.3137 23.6626 20.9402 23.8313C20.8679 23.8795 20.7474 23.8795 20.5788 23.8795Z" fill="#166D44"/>
<path d="M15.3253 26.0241C14.8675 26.3132 14.4819 26.5783 14.0964 26.8192C12.5783 27.7108 10.9639 28.2891 9.15663 28.1927C7.83133 28.1204 6.60241 27.6867 5.44578 27.0602C4.45783 26.5301 3.56627 25.8795 2.72289 25.1566C2.6747 25.1084 2.62651 25.0843 2.53012 25.012C3.03614 24.6024 3.49398 24.2168 4 23.8795C4.57831 23.4939 5.18072 23.1807 5.75904 22.8192C5.87952 22.7469 5.9759 22.7469 6.12048 22.8433C8.38554 24.4578 10.9398 25.3253 13.6627 25.7831C14.1928 25.8795 14.7229 25.9277 15.3253 26.0241Z" fill="#166D44"/>
<path d="M20.7229 26C22.6506 25.7831 24.4819 25.4458 26.241 24.7711C27.5422 24.2891 28.747 23.6626 29.8795 22.8674C30.0241 22.7711 30.1446 22.747 30.3133 22.8433C31.4699 23.4217 32.506 24.1686 33.4699 25.0361C33.2289 25.2289 33.0121 25.4217 32.7952 25.6144C31.5663 26.6024 30.2169 27.3976 28.6988 27.8795C26.7952 28.4819 24.9639 28.2891 23.1807 27.4698C22.4096 27.1084 21.6868 26.6265 20.9639 26.2168C20.9157 26.1686 20.8434 26.0964 20.7229 26Z" fill="#166D44"/>
<path d="M18.0245 26.6265C18.9161 27.253 19.8318 27.9277 20.7474 28.5783C20.8679 28.6747 20.8679 28.747 20.8197 28.8675C20.4342 30.0964 19.8077 31.2048 19.0366 32.241C18.7233 32.6747 18.386 33.0602 18.0245 33.5181C17.904 33.3976 17.8077 33.3012 17.7354 33.1807C16.651 31.9036 15.7836 30.506 15.2293 28.9157C15.157 28.6988 15.2052 28.6265 15.3739 28.5301C16.2655 27.8795 17.1571 27.253 18.0245 26.6265Z" fill="white"/>
<path d="M23.253 6.09638C24.3374 5.49397 25.4458 4.86747 26.6024 4.21687C27.0843 5.49397 27.4458 6.72289 27.6868 7.95181C26.6265 8.38554 25.5904 8.81928 24.5542 9.25301C24.1446 8.26506 23.7109 7.20482 23.253 6.09638Z" fill="#166D44"/>
<path d="M11.4941 9.27707C10.4821 8.84334 9.44595 8.4096 8.38571 7.97587C8.60258 6.74695 8.96402 5.51804 9.44595 4.28912C10.6508 4.81924 11.7592 5.44575 12.7953 6.14454C12.3375 7.20478 11.9038 8.24093 11.4941 9.27707Z" fill="#166D44"/>
</g>
<defs>
<clipPath id="clip0">
<rect width="36.0241" height="36" fill="white"/>
</clipPath>
</defs>
</svg>

<svg width="37" height="36" fill="none" xmlns="http://www.w3.org/2000/svg"><g clip-path="url(#clip0)"><path d="M17.832 0h.361c.29.193.602.386.843.602 1.085 1.037 2.025 2.193 2.868 3.422.072.096.145.217.217.313.144-.096.24-.168.361-.24a23.04 23.04 0 014.193-2.17c.699-.264 1.229-.072 1.494.627a90.25 90.25 0 011.229 3.59c.145.434.217.868.313 1.302.097-.024.193-.024.265-.048 1.59-.314 3.205-.434 4.844-.434.602 0 1.18.385 1.18 1.229a23.368 23.368 0 01-.554 5.494c-.602 2.723-1.687 5.229-3.542 7.35-.048.047-.072.12-.12.168.072.048.12.072.168.096 1.326.771 2.506 1.711 3.615 2.795.554.53.554 1.23 0 1.784-1.374 1.349-2.868 2.481-4.627 3.325-2.217 1.036-4.482 1.422-6.892.77-.433-.12-.867-.264-1.3-.385-.025.049-.025.073-.049.12-.82 2.266-2.169 4.17-3.855 5.88-.482.506-1.302.482-1.76.024-1.59-1.614-2.89-3.397-3.71-5.518-.072-.168-.12-.337-.193-.53a.722.722 0 00-.24.097c-2.266.843-4.531.867-6.796.048-2.096-.771-3.928-2-5.494-3.566-.265-.265-.458-.603-.699-.916v-.434c.169-.24.313-.53.53-.747a16.516 16.516 0 013.494-2.699c.073-.048.145-.096.193-.12-.361-.458-.723-.892-1.06-1.35C1.374 17.326.53 14.434.169 11.373c-.072-.53-.12-1.06-.169-1.59V7.928c.265-.7.53-.916 1.253-.892 1.133.024 2.241.097 3.374.193.554.048 1.108.169 1.663.24.024-.096.048-.192.048-.264.337-1.615.819-3.18 1.494-4.699.289-.578.819-.82 1.445-.554.627.265 1.278.506 1.88.843.94.482 1.831 1.012 2.771 1.542.048-.048.096-.144.169-.24A22.007 22.007 0 0117.06.553c.216-.217.506-.361.77-.554zm.24 2.554c-.096.073-.12.073-.144.097-1.59 1.71-2.916 3.614-3.855 5.783-1.23 2.867-1.35 5.735-.241 8.674.795 2.12 2.024 4 3.494 5.735.216.265.433.482.674.747 1.615-1.735 2.964-3.614 3.88-5.759 1.036-2.385 1.373-4.819.699-7.373a16.135 16.135 0 00-2.458-5.205c-.627-.94-1.35-1.807-2.048-2.699zM2.122 9.133v.216c.12 2.386.53 4.723 1.446 6.94 1.06 2.53 2.747 4.458 5.204 5.735 1.663.868 3.446 1.398 5.277 1.687.458.072.892.12 1.422.193-.072-.097-.072-.12-.096-.145-.699-.988-1.446-1.928-2.048-2.94C11.64 18 10.7 15.012 11.062 11.663c0-.073-.049-.193-.12-.217-.652-.338-1.278-.675-1.953-.964C7.398 9.807 5.711 9.446 4 9.253c-.626-.048-1.229-.072-1.88-.12zM20.579 23.88c.168 0 .289-.025.41-.025a21.167 21.167 0 004.072-.891c3.421-1.133 5.951-3.253 7.373-6.603.795-1.855 1.205-3.783 1.422-5.783.048-.457.072-.94.096-1.421h-.289c-.988.096-1.976.168-2.94.337-1.927.313-3.735.892-5.445 1.88-.217.12-.266.24-.241.481.144 1.277.072 2.53-.193 3.784-.53 2.53-1.663 4.77-3.157 6.867-.386.434-.747.892-1.108 1.373zm-5.253 2.144c-.603-.096-1.157-.145-1.687-.24-2.723-.435-5.277-1.302-7.542-2.94-.12-.097-.217-.097-.362-.025-.578.362-1.205.675-1.759 1.06-.506.338-.964.747-1.47 1.133.097.072.145.12.193.145.844.723 1.735 1.373 2.723 1.903 1.157.627 2.386 1.06 3.71 1.133 1.808.096 3.423-.482 4.94-1.374.434-.217.82-.506 1.254-.795zM20.723 26c.12.096.193.145.265.193.747.433 1.446.915 2.217 1.253 1.783.82 3.615 1.012 5.518.41 1.518-.483 2.844-1.302 4.097-2.266.216-.168.433-.361.674-.578a14.556 14.556 0 00-3.156-2.193c-.169-.096-.29-.072-.434.024a15.867 15.867 0 01-3.639 1.904c-1.783.699-3.614 1.06-5.542 1.253zm-2.699.627c-.843.626-1.735 1.253-2.626 1.879-.169.12-.217.193-.145.386.53 1.59 1.422 2.988 2.506 4.265.097.096.193.217.29.337.361-.434.698-.843 1.012-1.277.747-1.036 1.397-2.145 1.783-3.374.048-.12.048-.192-.073-.289-.94-.626-1.855-1.301-2.747-1.927zm5.23-20.53c.457 1.132.89 2.168 1.3 3.18a413.12 413.12 0 013.133-1.301 19.855 19.855 0 00-1.084-3.735c-1.157.626-2.265 1.253-3.35 1.855zm-11.76 3.18c.434-1.036.844-2.072 1.277-3.132-1.036-.7-2.144-1.35-3.349-1.856a23.572 23.572 0 00-1.06 3.687c1.084.434 2.12.867 3.132 1.301z" fill="#051B10"/><path d="M18.073 2.554c.699.892 1.421 1.76 2.072 2.675 1.133 1.59 1.976 3.301 2.458 5.205.675 2.554.313 4.988-.699 7.373-.94 2.145-2.289 4.024-3.88 5.76-.216-.242-.457-.483-.674-.748-1.47-1.735-2.675-3.59-3.494-5.735-1.108-2.915-.988-5.807.24-8.674.94-2.17 2.266-4.049 3.856-5.784.024 0 .049-.024.12-.072zM2.121 9.133c.65.048 1.253.096 1.88.144 1.71.193 3.397.554 4.988 1.23.674.288 1.3.626 1.951.963.073.024.12.144.12.217-.36 3.325.58 6.337 2.266 9.156.602 1.037 1.373 1.976 2.048 2.94a.45.45 0 01.096.145c-.506-.073-.963-.12-1.421-.193-1.856-.29-3.615-.82-5.277-1.687-2.434-1.277-4.145-3.205-5.205-5.735-.94-2.217-1.35-4.554-1.446-6.94v-.24zM20.58 23.88c.36-.506.722-.94 1.06-1.398 1.493-2.072 2.65-4.337 3.156-6.867.265-1.254.337-2.507.193-3.784-.024-.24.024-.361.24-.482 1.687-.963 3.519-1.566 5.447-1.88.963-.144 1.951-.216 2.94-.336h.288c-.024.482-.048.963-.096 1.421-.193 2-.627 3.928-1.422 5.783-1.421 3.35-3.952 5.494-7.373 6.603a21.571 21.571 0 01-4.073.891c-.072.049-.192.049-.36.049zm-5.255 2.144c-.457.29-.843.554-1.228.795-1.518.892-3.133 1.47-4.94 1.374-1.326-.073-2.554-.506-3.711-1.133-.988-.53-1.88-1.18-2.723-1.903-.048-.049-.096-.073-.193-.145.506-.41.964-.795 1.47-1.133.578-.385 1.18-.698 1.76-1.06.12-.072.216-.072.36.024 2.266 1.615 4.82 2.482 7.543 2.94.53.096 1.06.145 1.662.241zM20.723 26c1.927-.217 3.759-.554 5.518-1.229a15.869 15.869 0 003.638-1.904c.145-.096.265-.12.434-.024 1.157.579 2.193 1.326 3.157 2.193-.241.193-.458.386-.675.578-1.229.988-2.578 1.784-4.096 2.265-1.904.603-3.735.41-5.519-.41-.77-.36-1.494-.843-2.216-1.252a2.7 2.7 0 00-.241-.217z" fill="#166D44"/><path d="M18.025 26.627c.892.626 1.807 1.3 2.723 1.951.12.097.12.169.072.29-.385 1.228-1.012 2.337-1.783 3.373-.313.434-.65.82-1.012 1.277a1.797 1.797 0 01-.29-.337c-1.084-1.277-1.951-2.675-2.505-4.265-.072-.217-.024-.29.144-.386.892-.65 1.783-1.277 2.651-1.904z" fill="#fff"/><path d="M23.253 6.096c1.084-.602 2.193-1.228 3.35-1.88a23.157 23.157 0 011.084 3.736c-1.06.434-2.097.867-3.133 1.301-.41-.988-.843-2.048-1.301-3.157zM11.494 9.277a203.616 203.616 0 00-3.108-1.301 19.301 19.301 0 011.06-3.687 21.357 21.357 0 013.35 1.855c-.458 1.06-.892 2.097-1.302 3.133z" fill="#166D44"/></g><defs><clipPath id="clip0"><path fill="#fff" d="M0 0h36.024v36H0z"/></clipPath></defs></svg>
